X: 43503
T: Yester House
R: strathspey
M: 4/4
K: Adorian
a|e>Ae>d B<G G>g|e>Ae>d e>fg>a|b>a g/f/e/d/ B>G B>e|d>B g>B A2A:|
|:B|e<a a>f g<fe>d|e<a a>g a>ba>f|g>be>g d<gB>e|d<B g>B A2A:|

